X: 1
T: Reel Ti-M\'e
C: Marcel Messervier
R: reel
Z: 2010 John Chambers <jc:trillian.mit.edu>
M: C|
L: 1/8
K: D
fg |\
"D"afbf afde | (3faf (3ege dBAG | FAdA FAdf | "Em"e2[B2G2] [B2G2]ef |
"A7"gfga gfed |cBce c3B | AB (3cBA gfga | ba^ga "D"f2df |
"D"afbf afde | (3faf (3ege dBAG | FAdA FAdf | "Em"e2[B2G2] [B2G2]ef |
"A7"gfga gfed |cBce c3B | AB (3cBA gABc | "D"df"A7"ec "D"d2 :|
|: AF |\
"D"D2FA dAFA | "G"G2BG =cGBG | "A7"AAkeA AkfAA | kgAAg fecA |
"D"D2FA dAFA | "G"G2BG =cGBG | "A7"AAkeA AkfAA | gece "D"d2 :|

